X: 35926
T: Sandymount, The
R: reel
M: 4/4
K: Adorian
eAAG A3G|EGDG EGDG|EAAG A2 (3Bcd|egfa gedg|
eAAG A3G|EGDG EGDG|EAAG A2 (3Bcd|egfa gedg||
eaag a2ba|gede gedg|eaag a2ga|bagb a3g|
eaag a2ba|gedB dega|bgaf gefd|e3d e2ag||

